assets/azurekuberneteshub/original.svg

<svg height="18" viewBox="0 0 18 18" width="18" xmlns="http://www.w3.org/2000/svg" xmlns:xlink="http://www.w3.org/1999/xlink"><linearGradient id="a" gradientTransform="matrix(1 0 0 -1 0 791.52)" gradientUnits="userSpaceOnUse" x1="9.02" x2="9" y1="774.72" y2="782.52"><stop offset="0" stop-color="#d8f7ff"/><stop offset="1" stop-color="#d8f7ff" stop-opacity=".5"/></linearGradient><linearGradient id="b" gradientTransform="matrix(1 0 0 -1 0 791.52)" gradientUnits="userSpaceOnUse" x1="5.67" x2="12.53" y1="792.51" y2="771.91"><stop offset="0" stop-color="#0094f0"/><stop offset="1" stop-color="#2052cb"/></linearGradient><path d="m1.15 14.79v-11.58c0-.55.22-1.07.6-1.46.39-.39.91-.6 1.46-.6h11.57c.55 0 1.07.22 1.46.6.39.39.6.91.6 1.46v11.57c0 .55-.22 1.07-.6 1.46-.39.39-.91.6-1.46.6h-11.57c-.55 0-1.07-.22-1.46-.6-.39-.39-.6-.91-.6-1.46z" fill="#fff"/><path d="m1.15 14.79v-11.58c0-.55.22-1.07.6-1.46.39-.39.91-.6 1.46-.6h11.57c.55 0 1.07.22 1.46.6.39.39.6.91.6 1.46v11.57c0 .55-.22 1.07-.6 1.46-.39.39-.91.6-1.46.6h-11.57c-.55 0-1.07-.22-1.46-.6-.39-.39-.6-.91-.6-1.46z" fill="url(#a)"/><path d="m14.79 18h-11.58c-.86 0-1.67-.33-2.27-.94-.61-.61-.94-1.41-.94-2.27v-11.58c0-.86.33-1.67.94-2.27.61-.61 1.41-.94 2.27-.94h11.57c.86 0 1.67.33 2.27.94.61.61.94 1.41.94 2.27v11.57c0 .86-.33 1.67-.94 2.27-.61.61-1.41.94-2.27.94zm-11.58-16.85a2.05 2.05 0 0 0 -2.06 2.06v11.57a2.05 2.05 0 0 0 2.06 2.06h11.57c.54 0 1.07-.22 1.46-.6.39-.39.6-.91.6-1.46v-11.57a2.05 2.05 0 0 0 -2.06-2.06z" fill="url(#b)"/><path d="m9.69 9.38 2.43-1.4 2.43 1.4v2.81l-2.43 1.4-2.43-1.4v-2.8z" fill="#a265ec"/><path d="m9.71 9.39 2.42 1.39v2.8l-2.43-1.4v-2.79z" fill="#552f99"/><path d="m12.13 13.57 2.42-1.39v-2.8l-2.43 1.4v2.79z" fill="#8b4ee3"/><path d="m6.6 3.98 2.43-1.4 2.43 1.4v2.81l-2.43 1.4-2.43-1.4v-2.8z" fill="#a265ec"/><path d="m6.62 3.98 2.42 1.39v2.8l-2.43-1.4v-2.79z" fill="#552f99"/><path d="m9.03 8.17 2.42-1.39v-2.8l-2.43 1.4v2.79z" fill="#8b4ee3"/><path d="m9.69 5.71 2.43-1.4 2.43 1.4v2.81l-2.43 1.4-2.43-1.4v-2.8z" fill="#a265ec"/><path d="m9.71 5.72 2.42 1.39v2.8l-2.43-1.4v-2.79z" fill="#552f99"/><path d="m12.13 9.9 2.42-1.39v-2.8l-2.43 1.4v2.79z" fill="#8b4ee3"/><path d="m3.5 9.35 2.43-1.4 2.43 1.4v2.81l-2.43 1.4-2.43-1.4v-2.8z" fill="#bd96ff"/><path d="m3.52 9.36 2.42 1.39v2.8l-2.43-1.4v-2.79z" fill="#8b52f4"/><path d="m5.94 13.54 2.42-1.39v-2.8l-2.43 1.4v2.79z" fill="#9c6cfe"/><path d="m6.6 11.09 2.43-1.4 2.43 1.4v2.81l-2.43 1.4-2.43-1.4v-2.8z" fill="#bd96ff"/><path d="m6.6 11.1 2.42 1.39v2.8l-2.43-1.4v-2.79z" fill="#8b52f4"/><path d="m9.04 15.28 2.42-1.39v-2.8l-2.43 1.4v2.79z" fill="#9c6cfe"/><path d="m3.5 5.81 2.43-1.4 2.43 1.4v2.81l-2.43 1.4-2.43-1.4v-2.8z" fill="#bd96ff"/><path d="m3.52 5.82 2.42 1.39v2.8l-2.43-1.4v-2.79z" fill="#8b52f4"/><path d="m5.94 10 2.42-1.39v-2.8l-2.43 1.4v2.79z" fill="#9c6cfe"/><path d="m6.6 7.55 2.43-1.4 2.43 1.4v2.81l-2.43 1.4-2.43-1.4v-2.8z" fill="#bd96ff"/><path d="m6.62 7.56 2.42 1.39v2.8l-2.43-1.4v-2.79z" fill="#8b52f4"/><path d="m9.04 11.74 2.42-1.39v-2.8l-2.43 1.4v2.79z" fill="#9c6cfe"/></svg>

<svg xmlns="http://www.w3.org/2000/svg" width="18" height="18" viewBox="0 0 18 18"><linearGradient id="a" x1="9.02" x2="9" y1="774.72" y2="782.52" gradientTransform="matrix(1 0 0 -1 0 791.52)" gradientUnits="userSpaceOnUse"><stop offset="0" stop-color="#d8f7ff"/><stop offset="1" stop-color="#d8f7ff" stop-opacity=".5"/></linearGradient><linearGradient id="b" x1="5.67" x2="12.53" y1="792.51" y2="771.91" gradientTransform="matrix(1 0 0 -1 0 791.52)" gradientUnits="userSpaceOnUse"><stop offset="0" stop-color="#0094f0"/><stop offset="1" stop-color="#2052cb"/></linearGradient><path fill="#fff" d="M1.15 14.79V3.21c0-.55.22-1.07.6-1.46.39-.39.91-.6 1.46-.6h11.57c.55 0 1.07.22 1.46.6.39.39.6.91.6 1.46v11.57c0 .55-.22 1.07-.6 1.46-.39.39-.91.6-1.46.6H3.21c-.55 0-1.07-.22-1.46-.6-.39-.39-.6-.91-.6-1.46z"/><path fill="url(#a)" d="M1.15 14.79V3.21c0-.55.22-1.07.6-1.46.39-.39.91-.6 1.46-.6h11.57c.55 0 1.07.22 1.46.6.39.39.6.91.6 1.46v11.57c0 .55-.22 1.07-.6 1.46-.39.39-.91.6-1.46.6H3.21c-.55 0-1.07-.22-1.46-.6-.39-.39-.6-.91-.6-1.46z"/><path fill="url(#b)" d="M14.79 18H3.21c-.86 0-1.67-.33-2.27-.94-.61-.61-.94-1.41-.94-2.27V3.21C0 2.35.33 1.54.94.94 1.55.33 2.35 0 3.21 0h11.57c.86 0 1.67.33 2.27.94.61.61.94 1.41.94 2.27v11.57c0 .86-.33 1.67-.94 2.27-.61.61-1.41.94-2.27.94zM3.21 1.15a2.05 2.05 0 0 0-2.06 2.06v11.57a2.05 2.05 0 0 0 2.06 2.06h11.57c.54 0 1.07-.22 1.46-.6.39-.39.6-.91.6-1.46V3.21a2.05 2.05 0 0 0-2.06-2.06z"/><path fill="#a265ec" d="m9.69 9.38 2.43-1.4 2.43 1.4v2.81l-2.43 1.4-2.43-1.4v-2.8z"/><path fill="#552f99" d="m9.71 9.39 2.42 1.39v2.8l-2.43-1.4V9.39z"/><path fill="#8b4ee3" d="m12.13 13.57 2.42-1.39v-2.8l-2.43 1.4v2.79z"/><path fill="#a265ec" d="m6.6 3.98 2.43-1.4 2.43 1.4v2.81l-2.43 1.4-2.43-1.4v-2.8z"/><path fill="#552f99" d="m6.62 3.98 2.42 1.39v2.8l-2.43-1.4V3.98z"/><path fill="#8b4ee3" d="m9.03 8.17 2.42-1.39v-2.8l-2.43 1.4v2.79z"/><path fill="#a265ec" d="m9.69 5.71 2.43-1.4 2.43 1.4v2.81l-2.43 1.4-2.43-1.4v-2.8z"/><path fill="#552f99" d="m9.71 5.72 2.42 1.39v2.8L9.7 8.51V5.72z"/><path fill="#8b4ee3" d="m12.13 9.9 2.42-1.39v-2.8l-2.43 1.4V9.9z"/><path fill="#bd96ff" d="m3.5 9.35 2.43-1.4 2.43 1.4v2.81l-2.43 1.4-2.43-1.4v-2.8z"/><path fill="#8b52f4" d="m3.52 9.36 2.42 1.39v2.8l-2.43-1.4V9.36z"/><path fill="#9c6cfe" d="m5.94 13.54 2.42-1.39v-2.8l-2.43 1.4v2.79z"/><path fill="#bd96ff" d="m6.6 11.09 2.43-1.4 2.43 1.4v2.81l-2.43 1.4-2.43-1.4v-2.8z"/><path fill="#8b52f4" d="m6.6 11.1 2.42 1.39v2.8l-2.43-1.4V11.1z"/><path fill="#9c6cfe" d="m9.04 15.28 2.42-1.39v-2.8l-2.43 1.4v2.79z"/><path fill="#bd96ff" d="m3.5 5.81 2.43-1.4 2.43 1.4v2.81l-2.43 1.4-2.43-1.4v-2.8z"/><path fill="#8b52f4" d="m3.52 5.82 2.42 1.39v2.8l-2.43-1.4V5.82z"/><path fill="#9c6cfe" d="m5.94 10 2.42-1.39v-2.8l-2.43 1.4V10z"/><path fill="#bd96ff" d="m6.6 7.55 2.43-1.4 2.43 1.4v2.81l-2.43 1.4-2.43-1.4v-2.8z"/><path fill="#8b52f4" d="m6.62 7.56 2.42 1.39v2.8l-2.43-1.4V7.56z"/><path fill="#9c6cfe" d="m9.04 11.74 2.42-1.39v-2.8l-2.43 1.4v2.79z"/></svg>
